data/styles/clear/style-clear/symbols/seafood-shop-m.svg

<svg height="24" viewBox="0 0 24 24" width="24"><g fill="none" fill-rule="evenodd"><circle cx="12" cy="12" fill="#fff" opacity=".6" r="12"/><circle cx="12" cy="12" fill="#8c5f93" r="11"/><path d="m14.625 9.34287729c-.3047332-.72229028-2.7578148-2.22055342-2.7578148-2.22055342-.409861-.26477745-.6473532-.08474215-.5303721.39560597l.5198692 2.13468762c-2.02874721.65128474-3.6849593 1.27716004-4.51970675 2.16320074l-2.33697555-1.5747094v4.4911578l2.33697555-1.5747094c.58420497.620103 1.5707647.6545003 2.80578985 1.3817349-.41701841.150564-.63707251.5954629-.49090998 1.0455928l.32128916.9894581c.15290302.4708881.55777642.5642387.89894372.2140133l1.3308071-1.3661404c.4976957.1318476 1.0154792.2082823 1.5471046.2082823 3.8659933 0 5.25-3.1438105 5.25-3.1438105s-.9219773-2.5479144-4.375-3.07620753zm.875 3.59292621c.4832491 0 .875-.402152.875-.8982316 0-.4960795-.3917509-.8982315-.875-.8982315s-.875.402152-.875.8982315c0 .4960796.3917509.8982316.875.8982316z" fill="#fff"/></g></svg>

<svg width="24" height="24" viewBox="0 0 24 24">
  <g fill="none" fill-rule="evenodd">
    <circle cx="12" cy="12" r="12" fill="#FFF" opacity=".6"/>
    <circle cx="12" cy="12" r="11" fill="#8C5F93"/>
    <path fill="#FFF" d="M14.625,9.34287729 C14.3202668,8.62058701 11.8671852,7.12232387 11.8671852,7.12232387 C11.4573242,6.85754642 11.219832,7.03758172 11.3368131,7.51792984 L11.8566823,9.65261746 C9.82793509,10.3039022 8.171723,10.9297775 7.33697555,11.8158182 L5,10.2411088 L5,14.7322666 L7.33697555,13.1575572 C7.92118052,13.7776602 8.90774025,13.8120575 10.1427654,14.5392921 C9.72574699,14.6898561 9.50569289,15.134755 9.65185542,15.5848849 L9.97314458,16.574343 C10.1260476,17.0452311 10.530921,17.1385817 10.8720883,16.7883563 L12.2028954,15.4222159 C12.7005911,15.5540635 13.2183746,15.6304982 13.75,15.6304982 C17.6159933,15.6304982 19,12.4866877 19,12.4866877 C19,12.4866877 18.0780227,9.9387733 14.625,9.41048017 L14.625,9.34287729 Z M15.5,12.9358035 C15.9832491,12.9358035 16.375,12.5336515 16.375,12.0375719 C16.375,11.5414924 15.9832491,11.1393404 15.5,11.1393404 C15.0167509,11.1393404 14.625,11.5414924 14.625,12.0375719 C14.625,12.5336515 15.0167509,12.9358035 15.5,12.9358035 L15.5,12.9358035 Z"/>
  </g>
</svg>
